src/assets/img/right_arrow.svg

<svg height="40" viewBox="0 0 40 40" width="40" xmlns="http://www.w3.org/2000/svg"><g fill="none" fill-rule="evenodd"><path d="m0 0h40v40h-40z" fill="#1c1264"/><path d="m26.4982425 21.2051282h-15.4726015c-.5664459 0-1.025641-.4591951-1.025641-1.025641s.4591951-1.025641 1.025641-1.025641h15.4726015l-4.4029674-4.4029675c-.4005377-.4005377-.4005377-1.0499377 0-1.4504754s1.0499377-.4005377 1.4504754 0l6.1538462 6.1538462c.4005377.4005377.4005377 1.0499377 0 1.4504754l-6.1538462 6.1538462c-.4005377.4005377-1.0499377.4005377-1.4504754 0-.4005377-.4005378-.4005377-1.0499378 0-1.4504755z" fill="#f0cd57" fill-rule="nonzero"/></g></svg>

<?xml version="1.0" encoding="UTF-8"?>
<svg width="40px" height="40px" viewBox="0 0 40 40" version="1.1" xmlns="http://www.w3.org/2000/svg" xmlns:xlink="http://www.w3.org/1999/xlink">
    <!-- Generator: Sketch 52.6 (67491) - http://www.bohemiancoding.com/sketch -->
    <title>Group 35</title>
    <desc>Created with Sketch.</desc>
    <g id="Article-Page" stroke="none" stroke-width="1" fill="none" fill-rule="evenodd">
        <g id="Microplastics-desktop" transform="translate(-1310.000000, -10815.000000)">
            <g id="Group-36" transform="translate(-314.000000, 10615.000000)">
                <g id="Group-35" transform="translate(1624.000000, 200.000000)">
                    <rect id="Rectangle" fill="#1C1264" x="0" y="0" width="40" height="40"></rect>
                    <path d="M26.4982425,21.2051282 L11.025641,21.2051282 C10.4591951,21.2051282 10,20.7459331 10,20.1794872 C10,19.6130413 10.4591951,19.1538462 11.025641,19.1538462 L26.4982425,19.1538462 L22.0952751,14.7508787 C21.6947374,14.350341 21.6947374,13.700941 22.0952751,13.3004033 C22.4958128,12.8998656 23.1452128,12.8998656 23.5457505,13.3004033 L29.6995967,19.4542495 C30.1001344,19.8547872 30.1001344,20.5041872 29.6995967,20.9047249 L23.5457505,27.0585711 C23.1452128,27.4591088 22.4958128,27.4591088 22.0952751,27.0585711 C21.6947374,26.6580333 21.6947374,26.0086333 22.0952751,25.6080956 L26.4982425,21.2051282 Z" id="Combined-Shape" fill="#F0CD57" fill-rule="nonzero"></path>
                </g>
            </g>
        </g>
    </g>
</svg>
